X: 1
T: Polska efter Omas Per, Transrand
R:
S: Kalle Alml\"of
B:
D:
Z: 1998 by John Chambers <jc@trillian.mit.edu>
N: Learned from Kalle Alml\"of Aug 1998
M: 3/4
L: 1/8
K: DDor
|: A2 (a>b) a>g | e>f ga ~g>e \
| ^c>d e>f (3fde |1,3 (3^cBc A2 :|2,4 (3^cBc d2 :| \
|: A2 ^ce d>B | G2 Bd ^c2 |
| A2 ^ce d>B | BG B>A A2- \
|  A2 ^ce d>B | G2 Bd ^c2 | A>^c e>f (3fde | (3^cBc d2 :|
